X:1
T: Lord Duplin's Jig
C:
R:Jig
Q:180
K:D
M:6/8
L:1/16
A2|d4A2 F2D2F2|A2B2A2 F2D2F2|d4A2 B2A2F2|E4E2 E2F2G2|d4A2 F2D2F2|A2B2A2 F2G2A2|B2G2B2 A2F2A2|D4D2 D4A2|
d4d2 A2B2c2|d4d2 f2e2d2|d4d2 c2B2A2|B4e2 e4f2|d4d2 A2B2c2|d4d2 c2B2A2|B4G2 A2F2A2|D4D2 D4A2|
d4d2 A2B2c2|d4d2 f2e2d2|d4d2 B2A2F2|E4e2 e4f2|d4d2 f2e2f2|d4a2 f4e2|B4B2 c2B2c2|d4d2 d4A2|
F2D2F2 A2B2A2|F2D2F2 c2A2G2|F2D2F2 B2A2F2|E4E2 E4A2|f2d2f2 a2b2a2|f2d2f2 d'2e'2f'2|e'2d'2b2 a2f2a2|d4d2d4||
